icons/svg/pound.svg

﻿<?xml version="1.0" encoding="utf-8"?>
<!DOCTYPE svg PUBLIC "-//W3C//DTD SVG 1.1//EN" "http://www.w3.org/Graphics/SVG/1.1/DTD/svg11.dtd">
<svg xmlns="http://www.w3.org/2000/svg" xmlns:xlink="http://www.w3.org/1999/xlink" version="1.1" baseProfile="full" width="24" height="24" viewBox="0 0 24.00 24.00" enable-background="new 0 0 24.00 24.00" xml:space="preserve">
	<path fill="#000000" fill-opacity="1" stroke-width="0.2" stroke-linejoin="round" d="M 5.41306,21L 6.11836,17L 2.11837,17L 2.47102,15L 6.47102,15L 7.52897,9.00001L 3.52898,9L 3.88163,7.00001L 7.88163,7.00001L 8.58694,3L 10.5869,3L 9.88163,7.00001L 15.8816,7.00002L 16.5869,3.00001L 18.5869,3.00001L 17.8816,7.00002L 21.8816,7.00001L 21.529,9.00001L 17.529,9.00002L 16.471,15L 20.471,15L 20.1184,17L 16.1184,17L 15.413,21L 13.413,21L 14.1184,17L 8.11836,17L 7.41306,21L 5.41306,21 Z M 9.52897,9.00001L 8.47102,15L 14.471,15L 15.529,9.00002L 9.52897,9.00001 Z "/>
</svg>

<svg xmlns="http://www.w3.org/2000/svg" version="1.1" baseProfile="full" width="24" height="24" viewBox="0 0 24.00 24.00" xml:space="preserve"><path fill="#000" fill-opacity="1" stroke-width=".2" stroke-linejoin="round" d="M5.413 21l.705-4h-4l.353-2h4l1.06-6h-4l.352-2h4l.705-4h2l-.705 4h6l.705-4h2l-.705 4h4l-.353 2h-4l-1.06 6h4l-.352 2h-4l-.705 4h-2l.705-4h-6l-.705 4h-2zM9.53 9l-1.06 6h6l1.06-6h-6z"/></svg>
